X:291
T:Polska efter Brynte Olsson (Kull)
S:efter Brynte Kull
B:EÖ, nr 291
R:Polska
O:Boda, Skillingmarks sn, Värmland
Z:Nils L
L:1/8
M:3/4
%%tuplets 0 0 1
U:t=tenuto
K:A
E2>c2 c>E | !>!c2 (3BGB (3BGB | (3BGB cA A>A | Ac (3BGB (3BGB | (3BGB e4 | 
e2) E>c c>c | !>!c2 B/G/B/G/ B/G/B/G/ | B/G/B/G/ c>A !>!A z/A/ | A>c B/G/B/G/ B/G/B/G/ | (Bc) A4 ::
te2 e>a (3fdf     | fe te>d Bd | ce te>a (3fdf | fe te>d Bc | 
A z/c/ te>a (3fdf | fe te>d B>d | cz (3tcAc (3BGB | (3ABc A4 :|

